icons/themes/default/delete.svg

<svg viewBox="0 0 20 20" fill="none" xmlns="http://www.w3.org/2000/svg">
<path d="M4.83455 15.9828L5.38341 15.9474L4.83455 15.9828ZM15.1655 15.9828L14.6166 15.9474L15.1655 15.9828ZM2.5 4.38243H1.95V5.48243H2.5V4.38243ZM17.5 5.48243H18.05V4.38243H17.5V5.48243ZM8.72568 8.98649V8.43649H7.62568V8.98649H8.72568ZM7.62568 13.4459V13.9959H8.72568V13.4459H7.62568ZM12.3743 8.98649V8.43649H11.2743V8.98649H12.3743ZM11.2743 13.4459V13.9959H12.3743V13.4459H11.2743ZM12.6084 5.06952C12.6842 5.36369 12.984 5.54079 13.2782 5.46507C13.5723 5.38936 13.7494 5.08951 13.6737 4.79534L12.6084 5.06952ZM6.32631 4.79534C6.25059 5.08951 6.42769 5.38936 6.72186 5.46507C7.01603 5.54079 7.31588 5.36369 7.39159 5.06952L6.32631 4.79534ZM3.57276 4.96784L4.28569 16.0182L5.38341 15.9474L4.67048 4.89702L3.57276 4.96784ZM6.4528 18.05H13.5472V16.95H6.4528V18.05ZM15.7143 16.0182L16.4272 4.96784L15.3295 4.89702L14.6166 15.9474L15.7143 16.0182ZM15.8784 4.38243H4.12162V5.48243H15.8784V4.38243ZM2.5 5.48243H4.12162V4.38243H2.5V5.48243ZM15.8784 5.48243H17.5V4.38243H15.8784V5.48243ZM13.5472 18.05C14.6923 18.05 15.6406 17.1609 15.7143 16.0182L14.6166 15.9474C14.5802 16.5113 14.1123 16.95 13.5472 16.95V18.05ZM4.28569 16.0182C4.35941 17.1609 5.30773 18.05 6.4528 18.05V16.95C5.88775 16.95 5.41979 16.5113 5.38341 15.9474L4.28569 16.0182ZM7.62568 8.98649V13.4459H8.72568V8.98649H7.62568ZM11.2743 8.98649V13.4459H12.3743V8.98649H11.2743ZM10 3.05C11.2542 3.05 12.3094 3.90779 12.6084 5.06952L13.6737 4.79534C13.2527 3.15941 11.7683 1.95 10 1.95V3.05ZM7.39159 5.06952C7.6906 3.90779 8.74583 3.05 10 3.05V1.95C8.23176 1.95 6.74737 3.15941 6.32631 4.79534L7.39159 5.06952Z" fill="currentColor"/>
</svg>

<svg xmlns="http://www.w3.org/2000/svg" fill="none" viewBox="0 0 20 20">
  <path fill="currentColor" d="m4.835 15.983.548-.036-.548.036Zm10.33 0-.548-.036.548.036ZM2.5 4.383h-.55v1.1h.55v-1.1Zm15 1.1h.55v-1.1h-.55v1.1ZM8.726 8.985v-.55h-1.1v.55h1.1Zm-1.1 4.46v.55h1.1v-.55h-1.1Zm4.748-4.46v-.55h-1.1v.55h1.1Zm-1.1 4.46v.55h1.1v-.55h-1.1Zm1.334-8.376a.55.55 0 0 0 1.066-.275l-1.066.275Zm-6.282-.275a.55.55 0 1 0 1.066.275l-1.066-.275Zm-2.753.173.713 11.05 1.097-.07L4.67 4.896l-1.097.07Zm2.88 13.082h7.094v-1.1H6.453v1.1Zm9.261-2.032.713-11.05-1.098-.071-.712 11.05 1.097.071Zm.164-11.636H4.122v1.1h11.756v-1.1ZM2.5 5.482h1.622v-1.1H2.5v1.1Zm13.378 0H17.5v-1.1h-1.622v1.1Zm-2.33 12.568c1.144 0 2.093-.89 2.166-2.032l-1.097-.07a1.072 1.072 0 0 1-1.07 1.002v1.1Zm-9.262-2.032a2.172 2.172 0 0 0 2.167 2.032v-1.1a1.072 1.072 0 0 1-1.07-1.003l-1.097.071Zm3.34-7.032v4.46h1.1v-4.46h-1.1Zm3.648 0v4.46h1.1v-4.46h-1.1ZM10 3.05c1.254 0 2.31.858 2.608 2.02l1.066-.275A3.795 3.795 0 0 0 10 1.95v1.1ZM7.392 5.07A2.695 2.695 0 0 1 10 3.05v-1.1a3.795 3.795 0 0 0-3.674 2.845l1.066.275Z"/>
</svg>
